X:57 
T:Mrs. O'Donnell 
C:Carolan
B:B:MSIST.04b 
F:file ID:msist/57mrs_od
Y:"Irish - larghetto"
Q:120
M:C
L:1/4
R:march
K:Em % source key Gm
EEGA|Beed|e/f/g d/B/B/G/|Bdd B/A/|
"5"GE E2|DB,DD|AGEE|G/A/ BAG|
"9"ABAG|AA/B/ d/B/d/e/|dBd2|e2dB|
"13"BA A/G/E/D/|B,BDE|E4 ||
"16"BAGE|GED B,/A,/|B,DDB,|D2D2|
"20"BGdB|edge|dB d/B/A/G/|A2 AB|
"24"d/B/d/e/ dA|GBGB|e/d/B/A/ AB/d/|
"27"e2 e/d/B/A/|d/B/A/G/ B/A/G/E/|DBG2|DE E2|]

